X: 10748
T: Dr. Gilbert's
R: reel
M: 4/4
K: Eminor
gf|:eBBA AB~B2|dBAc BAGF|EDBD G2 FG|EDBE DBAG|
BE E/E/E ED D/D/D|GE E/E/E EFGA|B/c/d ed Bdgb|afdf efgf:|
e ~B3 g ~B3|defg afdf|g/f/g bg fgaf|egfd e ~b3|
afdf ed B/c/e|dBAF FEDF|EAcA Bdgb|afdf efgf:|

